X:1
T:Title
%%score { 1 | 2 }
L:1/8
Q:1/4=150
M:6/4
K:Bb
V:1 treble nm="Grand Piano"
V:2 bass 
V:1
 [B,D]2 [CE]2 [_D=E]2 [=DF]2 [DG]2 [DA]2 | [DB]2 [Ec]2 [DB]2 A6 | A2 G2 F2 A2 G2 F2 | G2 F2 E2 D6 | %4
w: J.~M.~Harris * * * * *||||
 D2 [CE]2 [_D=E]2 [=DF]2 G2 A2 | B2 c2 B2 [^Fd]6 |[M:13/8] c2 B2 G2 F2 B3 B2 | %7
w: |||
[M:6/4] c2 B2 A2 [DB]6 | c2 c2 c2 c2 F2 F2 | F2 [FB]2 [Fc]2 [Fd]6 | %10
w: |||
 [Fc]2 [Fc]2 [Fc]2 [=Ec]2 [EG]2 [EA]2 | [=EB]2 [EA]2 [EG]2 [_Ec]6 | %12
w: ||
 [Fd]2 [Fd]2 [Fd]2 [Ge]2 [Fd]2 [Fc]2 | [FB]2 [Fc]2 [_Ad]2 [Ge]6 | d2 c2 B2 F2 G2 A2 | %15
w: |||
[M:13/8] B2 c3 A2 [DB]-[DB]-[DB]- [DB]3 |] %16
w: |
V:2
 [B,,F,]2 [B,,A,]2 [B,,G,]2 [B,,B,]2 [B,,B,]2 [B,,B,]2 | [B,,F,]2 [B,,F,]2 [B,,B,]2 [F,CE]6 | %2
 [F,CE]2 [F,B,E]2 [F,A,E]2 [F,CE]2 [F,B,E]2 [F,A,E]2 | [F,A,E]2 [F,A,D]2 [F,C]2 [B,,F,B,]6 | %4
 [B,,F,B,]2 [B,,A,]2 [B,,G,]2 [B,,B,]2 [B,D]2 [A,C=E]2 | [G,B,D]2 [^F,A,D]2 [G,B,D]2 [D,A,]6 | %6
[M:13/8] [E,G,E]2 [E,G,E]2 [E,B,E]2 [F,B,D]2 [F,B,D]3 [F,B,D]2 | %7
[M:6/4] [F,A,E]2 [F,B,D]2 [F,CE]2 [B,,B,]6 | [F,A,F]2 [F,A,F]2 [F,A,F]2 [F,A,F]2 [F,A,]2 [E,A,]2 | %9
 [D,B,]2 [D,B,]2 [C,A,]2 [B,,B,]6 | [C,A,]2 [C,A,]2 [C,A,]2 [C,B,]2 [C,B,]2 [C,A,]2 | %11
 [C,G,]2 [C,C]2 [C,B,]2 [F,A,]6 | [B,,B,]2 [B,,B,]2 [B,,B,]2 [B,,B,]2 [B,,B,]2 [C,A,]2 | %13
 [D,B,]2 [C,A,]2 [B,,B,]2 [E,B,]6 | [F,B,F]2 [F,A,E]2 [F,B,D]2 [F,A,E]2 [F,B,E]2 [F,B,E]2 | %15
[M:13/8] [G,B,D]2 [F,A,E]3 [F,CE]2 [B,,B,]-[B,,B,]-[B,,B,]- [B,,B,]3 |] %16

